X:1
T:Down in the Willow Garden
M:3/4
L:1/4
K:E
 B,| E2 E| G- F E|G/2-B/2 B2| c2G/2-F/2| E C E| G2 G| C2 z| z2 B,|\
 E2 E| G- F E|G/2-B/2 B2| c2G/2-F/2| E2 E| C- E F| E2 z| z2 B| c2 e|\
 c B A/2A/2| B3/2 B/2 B| c2G/2-F/2| E2 C| E F G| C2 z| z2 B,| E2 E|\
 G F E|G/2-B/2 B B| c2G/2-F/2| E E E| C- E F| E2 z|
